file/sling-tv.svg

<svg clip-rule="evenodd" fill-rule="evenodd" stroke-linejoin="round" stroke-miterlimit="1.41421" viewBox="0 0 560 400" xmlns="http://www.w3.org/2000/svg"><g fill-rule="nonzero" transform="matrix(1.01466 0 0 1.01466 77.1702 47.8016)"><path d="m58.2 196.3c-18.2 0-30.3-8-35.7-16.5l13.1-9.1c4.9 7 12.3 10.2 21.4 10.2 9.7 0 14-3.2 14-8.5 0-6.4-5.9-7.4-19.3-11.2-11.8-3.2-23.5-8.7-23.5-24.5 0-15.9 12.7-23.5 28.4-23.5 12.7 0 21.6 5.3 27.7 11.9l-11.2 11c-3.8-4.4-9.3-7.8-16.5-7.8s-11.2 2.7-11.2 7.4c0 6.1 4.9 7.4 17.4 10.6s26.2 8.2 26.2 25c.1 13.8-8.2 25-30.8 25zm45.2-1.7h19.2v-123h-19.2zm148.7 0v-47.2c0-21.6-12.1-34.1-29.8-34.1-11.9 0-22 6.1-26.9 16.5l.4-14.8h-19.2v79.6h19.2v-43.2c0-12.9 8.2-20.5 20.7-20.5 11.2 0 16.5 6.6 16.5 18v45.7zm76.6-79.7h19.2v80.8c0 26.9-13.9 40.3-36.4 40.7h-36.4v-16.4h36.9c11.1 0 16.9-9 16.9-25.2v-13.8c-4.7 8.9-14.2 15.4-27.5 15.4-20.7 0-37.4-17.6-37.4-41.7s16.7-41.3 37-41.3c14 0 23.3 6.8 28.4 16.5zm.5 39.7c0-14.4-9.1-24.3-23.1-24.3-13.8 0-22.6 9.9-22.6 24.3 0 15 8.7 24.8 22.6 24.8 14 0 23.1-9.8 23.1-24.8zm-189.3 40h19.3v-79.6h-19.3zm-109.1 28h4.4v13h2.5v-13h4.4v-2.1h-11.3zm25.9 12.9h8.5v-2.1h-6.1v-4.7h5.7v-2.1h-5.7v-4.1h6.1v-2.1h-8.5zm26.3-15h-2.5v15.1h8.8v-2.1h-6.3zm21.1 15h8.5v-2.1h-6.1v-4.7h5.7v-2.1h-5.7v-4.1h6.1v-2.1h-8.5zm30-5.7c-.1.3-.3.8-.5 1.5s-.3 1.3-.4 1.8c-.1-.3-.2-.9-.4-1.6s-.4-1.3-.5-1.7l-3.1-9.4h-2.5l5.3 15.1h2.6l5.3-15.1h-2.6zm20.2 5.7h2.5v-15.1h-2.5zm25.9-7.2c-.5-.4-1.3-.8-2.4-1.3-1-.4-1.7-.7-2-1-.4-.2-.6-.5-.8-.8s-.2-.6-.2-1c0-.6.2-1 .6-1.4.4-.3 1-.5 1.8-.5 1.1 0 2.2.3 3.6.8l.8-2c-1.4-.6-2.9-.9-4.3-.9-1.5 0-2.7.4-3.6 1.1s-1.3 1.7-1.3 3c0 1 .3 1.9.8 2.6.6.7 1.5 1.3 2.9 1.9 1.3.5 2.2 1 2.6 1.4s.6.9.6 1.4c0 .6-.2 1.1-.7 1.5s-1.2.6-2.2.6c-.7 0-1.4-.1-2.2-.3s-1.5-.4-2.2-.8v2.3c1.1.5 2.5.8 4.2.8s3-.4 4-1.1c1-.8 1.5-1.8 1.5-3.2 0-.7-.1-1.3-.4-1.8-.2-.4-.6-.9-1.1-1.3zm16.6 7.2h2.5v-15.1h-2.5zm30.1-13.2c1.2 1.4 1.8 3.3 1.8 5.7 0 2.5-.6 4.4-1.8 5.7-1.2 1.4-3 2-5.2 2-2.3 0-4-.7-5.2-2s-1.8-3.3-1.8-5.8.6-4.4 1.8-5.7 3-2 5.3-2c2.2 0 3.9.7 5.1 2.1zm-.7 5.7c0-1.8-.4-3.3-1.1-4.2-.7-1-1.8-1.4-3.3-1.4s-2.6.5-3.3 1.4c-.8 1-1.1 2.4-1.1 4.2 0 1.9.4 3.3 1.1 4.2.8 1 1.9 1.4 3.3 1.4 1.5 0 2.6-.5 3.3-1.4s1.1-2.3 1.1-4.2zm28.2.4c0 .6 0 1.3.1 2.3 0 1 .1 1.6.1 1.7h-.1l-7.4-11.9h-3v15.1h2.2v-7.8c0-1.1 0-2.2-.1-3.5l-.1-.7h.1l7.4 12h3v-15.1h-2.3v7.9zm120.4-113.3-3 8.1-2.9-8.1h-2.7v10.5h1.7v-6.3l-.1-1.9h.1l2.9 8.1h1.5l3.1-8.1h.1l-.1 2v6.1h1.9v-10.5h-2.5zm-17.4 1.5h3v9h1.8v-9h3.1v-1.5h-7.9z" fill="#31acdf"/><path d="m162.3 82.3c0 7.6-5.9 12.7-12.7 12.7s-12.7-5.1-12.7-12.7c0-7.2 5.9-12.5 12.7-12.5 6.8-.1 12.7 5.2 12.7 12.5zm6.5-12.6c2.7 3.4 4 7.8 4 13.3 0 4.5-1.2 8.6-3.3 12.1 5.2-1.8 8.9-6.7 8.9-12.6.1-6.1-4-11.3-9.6-12.8zm12-3.9c3.5 4.5 5.3 10.2 5.3 17.4 0 5.9-1.5 11.3-4.3 15.7 6.8-2.4 11.7-8.8 11.7-16.4-.1-8-5.4-14.7-12.7-16.7zm15-2.2c4 5.1 6 11.6 6 19.7 0 6.7-1.7 12.8-4.9 17.9 7.7-2.7 13.2-10 13.2-18.6 0-9.1-6.1-16.7-14.3-19z" fill="#f9a535"/></g></svg>

<?xml version="1.0" encoding="UTF-8" standalone="no"?>
<!DOCTYPE svg PUBLIC "-//W3C//DTD SVG 1.1//EN" "http://www.w3.org/Graphics/SVG/1.1/DTD/svg11.dtd">
<svg width="100%" height="100%" viewBox="0 0 560 400" version="1.1" xmlns="http://www.w3.org/2000/svg" xmlns:xlink="http://www.w3.org/1999/xlink" xml:space="preserve" xmlns:serif="http://www.serif.com/" style="fill-rule:evenodd;clip-rule:evenodd;stroke-linejoin:round;stroke-miterlimit:1.41421;">
    <g transform="matrix(1.01466,0,0,1.01466,77.1702,47.8016)">
        <path id="blue" d="M58.2,196.3C40,196.3 27.9,188.3 22.5,179.8L35.6,170.7C40.5,177.7 47.9,180.9 57,180.9C66.7,180.9 71,177.7 71,172.4C71,166 65.1,165 51.7,161.2C39.9,158 28.2,152.5 28.2,136.7C28.2,120.8 40.9,113.2 56.6,113.2C69.3,113.2 78.2,118.5 84.3,125.1L73.1,136.1C69.3,131.7 63.8,128.3 56.6,128.3C49.4,128.3 45.4,131 45.4,135.7C45.4,141.8 50.3,143.1 62.8,146.3C75.3,149.5 89,154.5 89,171.3C89.1,185.1 80.8,196.3 58.2,196.3ZM103.4,194.6L122.6,194.6L122.6,71.6L103.4,71.6L103.4,194.6ZM252.1,194.6L252.1,147.4C252.1,125.8 240,113.3 222.3,113.3C210.4,113.3 200.3,119.4 195.4,129.8L195.8,115L176.6,115L176.6,194.6L195.8,194.6L195.8,151.4C195.8,138.5 204,130.9 216.5,130.9C227.7,130.9 233,137.5 233,148.9L233,194.6L252.1,194.6ZM328.7,114.9L347.9,114.9L347.9,195.7C347.9,222.6 334,236 311.5,236.4L275.1,236.4L275.1,220L312,220C323.1,220 328.9,211 328.9,194.8L328.9,181C324.2,189.9 314.7,196.4 301.4,196.4C280.7,196.4 264,178.8 264,154.7C264,130.6 280.7,113.4 301,113.4C315,113.4 324.3,120.2 329.4,129.9L328.7,114.9ZM329.2,154.6C329.2,140.2 320.1,130.3 306.1,130.3C292.3,130.3 283.5,140.2 283.5,154.6C283.5,169.6 292.2,179.4 306.1,179.4C320.1,179.4 329.2,169.6 329.2,154.6ZM139.9,194.6L159.2,194.6L159.2,115L139.9,115L139.9,194.6ZM30.8,222.6L35.2,222.6L35.2,235.6L37.7,235.6L37.7,222.6L42.1,222.6L42.1,220.5L30.8,220.5L30.8,222.6ZM56.7,235.5L65.2,235.5L65.2,233.4L59.1,233.4L59.1,228.7L64.8,228.7L64.8,226.6L59.1,226.6L59.1,222.5L65.2,222.5L65.2,220.4L56.7,220.4L56.7,235.5ZM83,220.5L80.5,220.5L80.5,235.6L89.3,235.6L89.3,233.5L83,233.5L83,220.5ZM104.1,235.5L112.6,235.5L112.6,233.4L106.5,233.4L106.5,228.7L112.2,228.7L112.2,226.6L106.5,226.6L106.5,222.5L112.6,222.5L112.6,220.4L104.1,220.4L104.1,235.5ZM134.1,229.8C134,230.1 133.8,230.6 133.6,231.3C133.4,232 133.3,232.6 133.2,233.1C133.1,232.8 133,232.2 132.8,231.5C132.6,230.8 132.4,230.2 132.3,229.8L129.2,220.4L126.7,220.4L132,235.5L134.6,235.5L139.9,220.4L137.3,220.4L134.1,229.8ZM154.3,235.5L156.8,235.5L156.8,220.4L154.3,220.4L154.3,235.5ZM180.2,228.3C179.7,227.9 178.9,227.5 177.8,227C176.8,226.6 176.1,226.3 175.8,226C175.4,225.8 175.2,225.5 175,225.2C174.8,224.9 174.8,224.6 174.8,224.2C174.8,223.6 175,223.2 175.4,222.8C175.8,222.5 176.4,222.3 177.2,222.3C178.3,222.3 179.4,222.6 180.8,223.1L181.6,221.1C180.2,220.5 178.7,220.2 177.3,220.2C175.8,220.2 174.6,220.6 173.7,221.3C172.8,222 172.4,223 172.4,224.3C172.4,225.3 172.7,226.2 173.2,226.9C173.8,227.6 174.7,228.2 176.1,228.8C177.4,229.3 178.3,229.8 178.7,230.2C179.1,230.6 179.3,231.1 179.3,231.6C179.3,232.2 179.1,232.7 178.6,233.1C178.1,233.5 177.4,233.7 176.4,233.7C175.7,233.7 175,233.6 174.2,233.4C173.4,233.2 172.7,233 172,232.6L172,234.9C173.1,235.4 174.5,235.7 176.2,235.7C177.9,235.7 179.2,235.3 180.2,234.6C181.2,233.8 181.7,232.8 181.7,231.4C181.7,230.7 181.6,230.1 181.3,229.6C181.1,229.2 180.7,228.7 180.2,228.3ZM196.8,235.5L199.3,235.5L199.3,220.4L196.8,220.4L196.8,235.5ZM226.9,222.3C228.1,223.7 228.7,225.6 228.7,228C228.7,230.5 228.1,232.4 226.9,233.7C225.7,235.1 223.9,235.7 221.7,235.7C219.4,235.7 217.7,235 216.5,233.7C215.3,232.4 214.7,230.4 214.7,227.9C214.7,225.4 215.3,223.5 216.5,222.2C217.7,220.9 219.5,220.2 221.8,220.2C224,220.2 225.7,220.9 226.9,222.3ZM226.2,228C226.2,226.2 225.8,224.7 225.1,223.8C224.4,222.8 223.3,222.4 221.8,222.4C220.3,222.4 219.2,222.9 218.5,223.8C217.7,224.8 217.4,226.2 217.4,228C217.4,229.9 217.8,231.3 218.5,232.2C219.3,233.2 220.4,233.6 221.8,233.6C223.3,233.6 224.4,233.1 225.1,232.2C225.8,231.3 226.2,229.9 226.2,228ZM254.4,228.4C254.4,229 254.4,229.7 254.5,230.7C254.5,231.7 254.6,232.3 254.6,232.4L254.5,232.4L247.1,220.5L244.1,220.5L244.1,235.6L246.3,235.6L246.3,227.8C246.3,226.7 246.3,225.6 246.2,224.3L246.1,223.6L246.2,223.6L253.6,235.6L256.6,235.6L256.6,220.5L254.3,220.5L254.3,228.4L254.4,228.4ZM374.8,115.1L371.8,123.2L368.9,115.1L366.2,115.1L366.2,125.6L367.9,125.6L367.9,119.3L367.8,117.4L367.9,117.4L370.8,125.5L372.3,125.5L375.4,117.4L375.5,117.4L375.4,119.4L375.4,125.5L377.3,125.5L377.3,115L374.8,115L374.8,115.1ZM357.4,116.6L360.4,116.6L360.4,125.6L362.2,125.6L362.2,116.6L365.3,116.6L365.3,115.1L357.4,115.1L357.4,116.6Z" style="fill:rgb(49,172,223);fill-rule:nonzero;"/>
        <path id="orange" d="M162.3,82.3C162.3,89.9 156.4,95 149.6,95C142.8,95 136.9,89.9 136.9,82.3C136.9,75.1 142.8,69.8 149.6,69.8C156.4,69.7 162.3,75 162.3,82.3ZM168.8,69.7C171.5,73.1 172.8,77.5 172.8,83C172.8,87.5 171.6,91.6 169.5,95.1C174.7,93.3 178.4,88.4 178.4,82.5C178.5,76.4 174.4,71.2 168.8,69.7ZM180.8,65.8C184.3,70.3 186.1,76 186.1,83.2C186.1,89.1 184.6,94.5 181.8,98.9C188.6,96.5 193.5,90.1 193.5,82.5C193.4,74.5 188.1,67.8 180.8,65.8ZM195.8,63.6C199.8,68.7 201.8,75.2 201.8,83.3C201.8,90 200.1,96.1 196.9,101.2C204.6,98.5 210.1,91.2 210.1,82.6C210.1,73.5 204,65.9 195.8,63.6Z" style="fill:rgb(249,165,53);fill-rule:nonzero;"/>
    </g>
</svg>
